img/university.svg

<svg width="38" height="38" viewBox="0 0 38 38" fill="none" xmlns="http://www.w3.org/2000/svg">
<path d="M36.1276 9.60064C36.1958 9.60068 36.2634 9.58727 36.3265 9.56117C36.3895 9.53508 36.4468 9.49681 36.495 9.44856C36.5433 9.40031 36.5816 9.34302 36.6077 9.27997C36.6338 9.21692 36.6472 9.14935 36.6471 9.08111V6.92669C36.6472 6.85845 36.6338 6.79088 36.6077 6.72783C36.5816 6.66478 36.5433 6.60749 36.495 6.55924C36.4468 6.51099 36.3895 6.47272 36.3265 6.44662C36.2634 6.42053 36.1958 6.40712 36.1276 6.40716H29.7448V4.54634H30.5259C30.5941 4.54638 30.6617 4.53297 30.7247 4.50688C30.7878 4.48078 30.8451 4.44251 30.8933 4.39426C30.9416 4.34601 30.9798 4.28872 31.0059 4.22567C31.032 4.16262 31.0454 4.09505 31.0454 4.02681V1.87239C31.0454 1.80415 31.032 1.73658 31.0059 1.67353C30.9798 1.61048 30.9416 1.55319 30.8933 1.50494C30.8451 1.45669 30.7878 1.41842 30.7247 1.39233C30.6617 1.36623 30.5941 1.35282 30.5259 1.35286H7.47559C7.40736 1.35282 7.33978 1.36623 7.27673 1.39233C7.21368 1.41842 7.15639 1.45669 7.10814 1.50494C7.05989 1.55319 7.02163 1.61048 6.99553 1.67353C6.96944 1.73658 6.95602 1.80415 6.95606 1.87239V4.02681C6.95602 4.09505 6.96944 4.16262 6.99553 4.22567C7.02163 4.28872 7.05989 4.34601 7.10814 4.39426C7.15639 4.44251 7.21368 4.48078 7.27673 4.50688C7.33978 4.53297 7.40736 4.54638 7.47559 4.54634H8.25667V6.40716H1.87238C1.80414 6.40712 1.73656 6.42053 1.67351 6.44662C1.61046 6.47272 1.55318 6.51099 1.50492 6.55924C1.45667 6.60749 1.41841 6.66478 1.39231 6.72783C1.36622 6.79088 1.35281 6.85845 1.35284 6.92669V9.08111C1.35281 9.14935 1.36622 9.21692 1.39231 9.27997C1.41841 9.34302 1.45667 9.40031 1.50492 9.44856C1.55318 9.49681 1.61046 9.53508 1.67351 9.56117C1.73656 9.58727 1.80414 9.60068 1.87238 9.60064H2.65316V33.4537H1.87238C1.80414 33.4536 1.73656 33.467 1.67351 33.4931C1.61046 33.5192 1.55318 33.5575 1.50492 33.6057C1.45667 33.654 1.41841 33.7113 1.39231 33.7743C1.36622 33.8374 1.35281 33.9049 1.35284 33.9732V36.1276C1.35281 36.1958 1.36622 36.2634 1.39231 36.3265C1.41841 36.3895 1.45667 36.4468 1.50492 36.4951C1.55318 36.5433 1.61046 36.5816 1.67351 36.6077C1.73656 36.6338 1.80414 36.6472 1.87238 36.6471H36.1276C36.1958 36.6472 36.2634 36.6338 36.3265 36.6077C36.3895 36.5816 36.4468 36.5433 36.495 36.4951C36.5433 36.4468 36.5816 36.3895 36.6077 36.3265C36.6338 36.2634 36.6472 36.1958 36.6471 36.1276V33.9732C36.6472 33.9049 36.6338 33.8374 36.6077 33.7743C36.5816 33.7113 36.5433 33.654 36.495 33.6057C36.4468 33.5575 36.3895 33.5192 36.3265 33.4931C36.2634 33.467 36.1958 33.4536 36.1276 33.4537H35.3465V9.60064H36.1276ZM35.6081 7.44622V8.56158H29.7433V7.44622H35.6081ZM19.5195 33.4525V24.3791H22.7038V33.4537L19.5195 33.4525ZM15.2962 33.4525V24.3791H18.4805V33.4537L15.2962 33.4525ZM23.2227 23.3388H14.7766C14.6389 23.3389 14.5068 23.3937 14.4094 23.4911C14.3119 23.5885 14.2572 23.7206 14.2571 23.8584V33.4525H13.6322L12.4857 30.2587V19.5195H25.5143V30.2599L24.3678 33.4537H23.7429V23.8595C23.7428 23.7218 23.688 23.5897 23.5906 23.4923C23.4932 23.3949 23.3611 23.3401 23.2233 23.34L23.2227 23.3388ZM9.14166 30.8702H11.6004L12.5278 33.4531H8.21422L9.14166 30.8702ZM26.3996 30.8702H28.8583L29.7857 33.4531H25.4719L26.3996 30.8702ZM7.99512 2.39192H30.0048V3.50728H7.99512V2.39192ZM28.7042 4.54634V29.8312H26.5534V19C26.5534 18.8622 26.4986 18.7301 26.4012 18.6326C26.3038 18.5352 26.1716 18.4805 26.0338 18.4805H11.9661C11.8283 18.4805 11.6962 18.5352 11.5988 18.6326C11.5013 18.7301 11.4466 18.8622 11.4466 19V29.8312H9.29573V4.54634H28.7042ZM2.39191 7.44622H8.25667V8.56158H2.39191V7.44622ZM3.69222 9.60064H8.25667V30.2599L7.10984 33.4537H3.69222V9.60064ZM35.6081 35.6069H2.39191V34.4915H35.6081V35.6069ZM34.3074 33.4525H30.8901L29.7433 30.2587V9.60064H34.3074V33.4525Z" fill="white"/>
<path d="M17.2262 16.7331H20.7738C20.9116 16.7331 21.0438 16.6783 21.1412 16.5809C21.2386 16.4835 21.2934 16.3513 21.2934 16.2135V12.6665C21.2934 12.5287 21.2386 12.3965 21.1412 12.2991C21.0438 12.2017 20.9116 12.1469 20.7738 12.1469H17.2262C17.0884 12.1469 16.9562 12.2017 16.8588 12.2991C16.7614 12.3965 16.7066 12.5287 16.7066 12.6665V16.2135C16.7066 16.3513 16.7614 16.4835 16.8588 16.5809C16.9562 16.6783 17.0884 16.7331 17.2262 16.7331ZM17.7457 13.186H20.2543V15.694H17.7457V13.186Z" fill="white"/>
<path d="M11.3756 16.7331H14.923C15.0608 16.7331 15.1929 16.6783 15.2904 16.5809C15.3878 16.4835 15.4425 16.3513 15.4425 16.2135V12.6665C15.4425 12.5287 15.3878 12.3965 15.2904 12.2991C15.1929 12.2017 15.0608 12.1469 14.923 12.1469H11.3756C11.2379 12.1469 11.1057 12.2017 11.0083 12.2991C10.9108 12.3965 10.8561 12.5287 10.8561 12.6665V16.2135C10.8561 16.3513 10.9108 16.4835 11.0083 16.5809C11.1057 16.6783 11.2379 16.7331 11.3756 16.7331ZM11.8952 13.186H14.4035V15.694H11.8952V13.186Z" fill="white"/>
<path d="M23.077 16.7331H26.6243C26.7621 16.7331 26.8943 16.6783 26.9917 16.5809C27.0891 16.4835 27.1439 16.3513 27.1439 16.2135V12.6665C27.1439 12.5287 27.0891 12.3965 26.9917 12.2991C26.8943 12.2017 26.7621 12.1469 26.6243 12.1469H23.077C22.9392 12.1469 22.807 12.2017 22.7096 12.2991C22.6122 12.3965 22.5574 12.5287 22.5574 12.6665V16.2135C22.5574 16.3513 22.6122 16.4835 22.7096 16.5809C22.807 16.6783 22.9392 16.7331 23.077 16.7331ZM23.5965 13.186H26.1048V15.694H23.5965V13.186Z" fill="white"/>
<path d="M17.2262 10.8802H20.7738C20.9116 10.8801 21.0437 10.8253 21.1411 10.7279C21.2385 10.6305 21.2933 10.4984 21.2934 10.3606V6.81328C21.2933 6.67551 21.2385 6.54341 21.1411 6.446C21.0437 6.34859 20.9116 6.29383 20.7738 6.29375H17.2262C17.0884 6.29383 16.9563 6.34859 16.8589 6.446C16.7615 6.54341 16.7067 6.67551 16.7066 6.81328V10.3609C16.7068 10.4986 16.7616 10.6307 16.859 10.728C16.9564 10.8254 17.0885 10.8801 17.2262 10.8802ZM17.7457 7.33281H20.2543V9.84111H17.7457V7.33281Z" fill="white"/>
<path d="M11.3756 10.8802H14.923C15.0608 10.8801 15.1929 10.8253 15.2903 10.7279C15.3877 10.6305 15.4425 10.4984 15.4425 10.3606V6.81328C15.4425 6.67551 15.3877 6.54341 15.2903 6.446C15.1929 6.34859 15.0608 6.29383 14.923 6.29375H11.3756C11.2379 6.29383 11.1058 6.34859 11.0084 6.446C10.9109 6.54341 10.8562 6.67551 10.8561 6.81328V10.3609C10.8563 10.4986 10.9111 10.6307 11.0085 10.728C11.1059 10.8254 11.2379 10.8801 11.3756 10.8802ZM11.8952 7.33281H14.4035V9.84111H11.8952V7.33281Z" fill="white"/>
<path d="M23.077 10.8802H26.6243C26.7621 10.8801 26.8942 10.8253 26.9916 10.7279C27.089 10.6305 27.1438 10.4984 27.1439 10.3606V6.81328C27.1438 6.67551 27.089 6.54341 26.9916 6.446C26.8942 6.34859 26.7621 6.29383 26.6243 6.29375H23.077C22.9392 6.29383 22.8071 6.34859 22.7097 6.446C22.6123 6.54341 22.5575 6.67551 22.5574 6.81328V10.3609C22.5576 10.4986 22.6124 10.6307 22.7098 10.728C22.8072 10.8254 22.9393 10.8801 23.077 10.8802ZM23.5965 7.33281H26.1048V9.84111H23.5965V7.33281Z" fill="white"/>
</svg>

<svg width="38" height="38" fill="none" xmlns="http://www.w3.org/2000/svg"><path d="M36.128 9.6a.52.52 0 00.52-.519V6.927a.518.518 0 00-.52-.52h-6.383v-1.86h.78a.519.519 0 00.52-.52V1.872a.52.52 0 00-.52-.52H7.476a.52.52 0 00-.519.52v2.155a.52.52 0 00.52.52h.78v1.86H1.873a.52.52 0 00-.52.52V9.08a.52.52 0 00.52.52h.781v23.853h-.78a.518.518 0 00-.52.52v2.154a.52.52 0 00.52.52h34.255a.518.518 0 00.52-.52v-2.155a.518.518 0 00-.52-.52h-.782V9.602h.782zm-.52-2.154v1.116h-5.865V7.446h5.865zM19.52 33.453v-9.074h3.184v9.075l-3.184-.002zm-4.224 0v-9.074h3.184v9.075l-3.184-.002zm7.927-10.114h-8.446a.52.52 0 00-.52.52v9.593h-.625l-1.146-3.193v-10.74h13.028v10.74l-1.146 3.195h-.625v-9.595a.52.52 0 00-.52-.519v-.001zM9.142 30.87H11.6l.928 2.583H8.214l.928-2.583zm17.258 0h2.458l.928 2.583h-4.314l.928-2.583zM7.995 2.392h22.01v1.115H7.995V2.392zm20.71 2.154v25.285h-2.152V19a.52.52 0 00-.52-.52H11.967a.52.52 0 00-.52.52v10.831h-2.15V4.546h19.408zm-26.313 2.9h5.865v1.116H2.392V7.446zm1.3 2.155h4.565V30.26L7.11 33.454H3.692V9.6zm31.916 26.006H2.392v-1.115h33.216v1.115zm-1.3-2.154H30.89l-1.147-3.194V9.6h4.564v23.852z" fill="#fff"/><path d="M17.226 16.733h3.548a.52.52 0 00.52-.52v-3.547a.52.52 0 00-.52-.52h-3.548a.52.52 0 00-.52.52v3.547a.52.52 0 00.52.52zm.52-3.547h2.508v2.508h-2.508v-2.508zm-6.37 3.547h3.547a.52.52 0 00.52-.52v-3.547a.52.52 0 00-.52-.52h-3.547a.52.52 0 00-.52.52v3.547a.52.52 0 00.52.52zm.52-3.547h2.507v2.508h-2.508v-2.508zm11.181 3.547h3.547a.52.52 0 00.52-.52v-3.547a.52.52 0 00-.52-.52h-3.547a.52.52 0 00-.52.52v3.547a.52.52 0 00.52.52zm.52-3.547h2.508v2.508h-2.509v-2.508zm-6.371-2.306h3.548a.52.52 0 00.52-.52V6.814a.52.52 0 00-.52-.52h-3.548a.52.52 0 00-.52.52v3.548a.52.52 0 00.52.52zm.52-3.547h2.508V9.84h-2.508V7.333zm-6.37 3.547h3.547a.52.52 0 00.52-.52V6.814a.52.52 0 00-.52-.52h-3.547a.52.52 0 00-.52.52v3.548a.52.52 0 00.52.52zm.52-3.547h2.507V9.84h-2.508V7.333zm11.181 3.547h3.547a.52.52 0 00.52-.52V6.814a.52.52 0 00-.52-.52h-3.547a.52.52 0 00-.52.52v3.548a.52.52 0 00.52.52zm.52-3.547h2.508V9.84h-2.509V7.333z" fill="#fff"/></svg>
